ion/fitness.svg

<svg viewBox="0 0 512 512" xmlns="http://www.w3.org/2000/svg"><g><path d="M193.69 152.84v0c3.94-7.91 13.55-11.12 21.46-7.17 3.94 1.97 6.9 5.49 8.17 9.72l36.4 121.36 30-59.92v0c3.95-7.91 13.56-11.11 21.46-7.16 3.09 1.54 5.6 4.05 7.15 7.15l27.54 55.16h96.76v0c14.4-29.71 21.71-62.35 21.35-95.35 -.63-62.11-50.46-112.65-111.08-112.65 -48.09 0-80 29.54-96.92 51 -16.88-21.49-48.83-51-96.92-51 -60.62 0-110.45 50.54-111.08 112.65l-.001-.001c-.26 21.44 2.75 42.8 8.93 63.35h93.18Z"/><path d="M321.69 295.16L304 259.78l-33.69 67.38h-.001c-2.72 5.41-8.26 8.84-14.31 8.84q-.67 0-1.38-.06v0c-6.56-.55-12.11-5.05-14-11.34l-36.4-121.36 -30 59.92h0c-2.7 5.38-8.2 8.8-14.22 8.84H69.34q14 29.29 37.27 57.66c18.77 22.88 52.8 59.46 131.39 112.81v0c10.84 7.43 25.15 7.43 36 0 78.59-53.35 112.62-89.93 131.39-112.81v0c6.76-8.23 13.1-16.8 19-25.66h-88.4v0c-6.06 0-11.6-3.43-14.31-8.84Z"/><path d="M464 272h-21.35 -.001c-5.32 11.08-11.42 21.77-18.25 32h39.6v0c8.83 0 16-7.17 16-16 0-8.84-7.17-16-16-16Z"/><path d="M48 240v0c-8.84 0-16 7.16-16 16 0 8.83 7.16 16 16 16h21.35 0c-4.95-10.34-9.11-21.04-12.42-32Z"/></g></svg>

<svg xmlns="http://www.w3.org/2000/svg" width="512" height="512" viewBox="0 0 512 512"><path d="M193.69,152.84a16,16,0,0,1,29.64,2.56l36.4,121.36,30-59.92a16,16,0,0,1,28.62,0L345.89,272h96.76A213.08,213.08,0,0,0,464,176.65C463.37,114.54,413.54,64,352.92,64c-48.09,0-80,29.54-96.92,51-16.88-21.49-48.83-51-96.92-51C98.46,64,48.63,114.54,48,176.65A211.13,211.13,0,0,0,56.93,240h93.18Z"/><path d="M321.69,295.16,304,259.78l-33.69,67.38A16,16,0,0,1,256,336q-.67,0-1.38-.06a16,16,0,0,1-14-11.34l-36.4-121.36-30,59.92A16,16,0,0,1,160,272H69.35q14,29.29,37.27,57.66c18.77,22.88,52.8,59.46,131.39,112.81a31.84,31.84,0,0,0,36,0c78.59-53.35,112.62-89.93,131.39-112.81a316.79,316.79,0,0,0,19-25.66H336A16,16,0,0,1,321.69,295.16Z"/><path d="M464,272H442.65a260.11,260.11,0,0,1-18.25,32H464a16,16,0,0,0,0-32Z"/><path d="M48,240a16,16,0,0,0,0,32H69.35a225.22,225.22,0,0,1-12.42-32Z"/></svg>
